X: 156
P: Longways for as many as will
M: 6/4
L: 1/4
K: D
d3 f2g | afb gea | fdg ecf | dBe c2A |\
d3 f2g | afb geg | aBc dB2 | A3- A2 |]\
d2d B2B | ede c2c |
fef ^ABc | c2B B2f |\
bab g2e | aga f2f | gfg cBc | aga dcd |\
bed cAG | (FA2) (GB2) | (Ad2) (Be2) | (Ad)c d2 |]

